X: 19636
T: Jean Carignan
R: strathspey
M: 4/4
K: Gmajor
d>c|:B>c d<B A>c B>c|d>c B<G E>A F<D|B>c d<B c>B c>d|1 e>c A<F G2 d>c:|2 e>c A<F G2 G>f||
g2 g>c B>c d<B|g2 g>B A2 A>f|g2 g>c B>c d<B|e>c A<F G2 G>f|
g2 g>c B>c d<B|g2 g>B A2 A>f|g>d b>d g>d e>c|B<d D>F G2||

